build/img/good.svg

<svg width="48" height="48" viewBox="0 0 48 48" fill="none" xmlns="http://www.w3.org/2000/svg">
<rect width="48" height="48" rx="24" fill="#1ED77E"/>
<path fill-rule="evenodd" clip-rule="evenodd" d="M33.4144 18.9999L32.7073 19.707L22.7073 29.707L22.0001 30.4141L21.293 29.707L15.293 23.707L14.5859 22.9999L16.0002 21.5857L16.7073 22.2928L22.0001 27.5857L31.293 18.2928L32.0001 17.5857L33.4144 18.9999Z" fill="white"/>
</svg>

<svg width="48" height="48" viewBox="0 0 48 48" fill="none" xmlns="http://www.w3.org/2000/svg"><rect width="48" height="48" rx="24" fill="#1ED77E"/><path fill-rule="evenodd" clip-rule="evenodd" d="M33.414 19l-.707.707-10 10-.707.707-.707-.707-6-6-.707-.707L16 21.586l.707.707L22 27.586l9.293-9.293.707-.707L33.414 19z" fill="#fff"/></svg>
